X: 4
T: 'S Daor An Tabac
R: reel
M: 4/4
K: Bminor
eAAB eABB|eAAB gedB|eAAB eABB|G2AB gedB:|
~e3d efg2|~e3f gedB|~e3d efg2|G2AB gedB|
~e3d efg2|~e3f gedB|efga geg2|GABG gedB||

